X:377
T:Killin
R:Reel
B:The Athole Collection
M:C|
L:1/8
K:A
B|d2eB AGAB|d2ed BB=GB|d2ed cAec|B=GdB A/A/A A:|
B|d2 fd ceae|d2fd BB=GB|1 d2fd ceae|B=GdB A/A/A A:|2 ddfd ceae|
B=GdB A/A/A A||

